X: 536
T: Ducks On The Pond
B: jims roots
M:4/4
L:1/8
Q: 1/4=100
K:A
V:1 
|: (3efg | "A"a2 b2 a2 (=gg | e)def "G"=g2 Be | =gaba g2 (3gfe | "Em"ede=g "A"a2 eg |
a2 b2 a2 =gg | edef "G"=g2ba | =gfeB "Em"d2B2 |1 "A"A3B A2 :|2 "A"A3B A2A2 ||
|:[K:Amix] "Am"A3d e2d2 | edef "G"=g4 | B3d BAGA | B3d BAGD |
"Am"E3d e2d2 | edef "G"gaba | gfeB "Em"d2B2 |1 "Am"A3B A2 :|2 "Am"A3B A2|]
http://box5209.temp.domains/~txdtvhmy/jimsrootsandblues/ducks-on-the-pond/?preview=true
% abcbook-tune_id 6298c25d584031e3a47de0f4


% abcbook-boost 0
% abcbook-tablature 
% abcbook-transpose 
% abcbook-lastupdated 1654178397725
% abcbook-soundfonts 
% abcbook-repeats 1


